X: 137
T: Jock Tamson's Hornpipe
C:
B: NEFR #137
R: hornpipe, reel
Z: 2012 John Chambers <jc:trillian.mit.edu>
M: C|
L: 1/8
K: D
Ad |\
fg fe de dB | A2 F2 F3 E | DF Ad gf ed | cd ef e2 Ad |
fg fe de dB | A2 F2 F3 A | FA df ea ce | d2 f2 d2 :|
|: ef |\
gf eg fe df | ed cB A2 ef | gf eg fe df | e2 a2 a2 ef |
gf eg fe df | ed ce dc BA | Bd ce df eg | f2 d2 d2 :|


